X:24
T:Glada Ryd
R:Slängpolska
S:Efter [[!Anders Larsson]]
O:Östra Ryd, Östergötland
M:3/4
L:1/16
K:A
eaga eaga e3e| fefg a2e2 c2A2|d2fd c2ec B4|E2GB e2B2 G2E2| 
Edcd edcd B3d|cABc defg aecA|Edcd edcd B3d|cABc defg aecA|
d2fd c2ec B3d|cBAG G2A2 A4::e3^d e2ed e3e|fedc BAGF E4|
a3g f2e2 B3a| gfe^d d2e2 e4|Edcd edcd B3d|cABc defg aecA|
Edcd edcd B3d|cABc defg aecA|d2fd c2ec B3d|cBAG G2A2 A4:|
(:musicend:)

[[!dublett]] av [[Musik/1297|+]]


Nedan en snarlik version, med lite stråk och drillar utmärkta. Bågarna är dock inte kompletta, utan märker bara ut de tydligaste bindningarna.

(:music:)
